findly-builder/apps/searchassist/src/assets/icons/resultranking/export-up.svg

<svg width="16" height="16" viewBox="0 0 16 16" fill="none" xmlns="http://www.w3.org/2000/svg">
<path d="M8.00181 3L2 8.73296L2.65158 9.3829L8.00181 4.26457L13.3557 9.3829L14 8.73296L8.00181 3ZM8.00181 6.6171L2 12.3501L2.65158 13L8.00181 7.88167L13.3557 13L14 12.3501L8.00181 6.6171Z" fill="#FF784B"/>
</svg>

<svg width="16" height="16" fill="none" xmlns="http://www.w3.org/2000/svg"><path d="M8.002 3 2 8.733l.652.65 5.35-5.118 5.354 5.118.644-.65L8.002 3Zm0 3.617L2 12.35l.652.65 5.35-5.118L13.356 13l.644-.65-5.998-5.733Z" fill="#FF784B"/></svg>
